X: 30991
T: Pa Paddy O'Sullivan's
R: polka
M: 2/4
K: Dmajor
|:F2 FE|FA Bd|A2 AD|FE E2|
F2 G/F/E|FA Bd|A/B/A/^G/ AF|ED D2:|
|:d2 dc|BA Bd|A2 AD|FE E2|
d2 e/d/c|B>^A B/c/d|A>B AF|ED D2:|

